X:486
T: Beluxt a beduxt (194), S. 423
N: T0374
O: Luxemburg
S: Singendes Volk, Esch-Alzette, 1937 posth.]
N: Junglinster und andere Orte
R: Hochzeits-, Ehestandslied]
M: 2/4
L: 1/8
K: G
D | GFGA | B2G
B | AGFA | G2z
D | GFGA | B2G
B | AGFA | G2z

@@@ Tune index: 8540
